unit_8/images/facebook.svg

<?xml version="1.0" encoding="utf-8"?>
<!-- Generator: Adobe Illustrator 18.1.1, SVG Export Plug-In . SVG Version: 6.00 Build 0)  -->
<!DOCTYPE svg PUBLIC "-//W3C//DTD SVG 1.1//EN" "http://www.w3.org/Graphics/SVG/1.1/DTD/svg11.dtd">
<svg version="1.1" id="Facebook_w_x2F__circle" xmlns="http://www.w3.org/2000/svg" xmlns:xlink="http://www.w3.org/1999/xlink"
	 x="0px" y="0px" viewBox="0 0 20 20" enable-background="new 0 0 20 20" xml:space="preserve">
<path d="M10,0.4c-5.302,0-9.6,4.298-9.6,9.6s4.298,9.6,9.6,9.6s9.6-4.298,9.6-9.6S15.302,0.4,10,0.4z M12.274,7.034h-1.443
	c-0.171,0-0.361,0.225-0.361,0.524V8.6h1.805l-0.273,1.486H10.47v4.461H8.767v-4.461H7.222V8.6h1.545V7.726
	c0-1.254,0.87-2.273,2.064-2.273h1.443V7.034z"/>
</svg>

<?xml version="1.0" encoding="UTF-8" standalone="no"?>
<svg width="20px" height="20px" viewBox="0 0 20 20" version="1.1" xmlns="http://www.w3.org/2000/svg" xmlns:xlink="http://www.w3.org/1999/xlink">
    <!-- Generator: Sketch 3.8.3 (29802) - http://www.bohemiancoding.com/sketch -->
    <title>facebook</title>
    <desc>Created with Sketch.</desc>
    <defs></defs>
    <g id="ICONS" stroke="none" stroke-width="1" fill="none" fill-rule="evenodd">
        <g id="Artboard-1" transform="translate(-150.000000, -99.000000)" fill="#FFFFFF">
            <g id="twitter" transform="translate(86.000000, 99.000000)">
                <g id="Twitter_w_x2F__circle">
                    <g id="facebook" transform="translate(64.000000, 0.000000)">
                        <g id="Facebook_w_x2F__circle">
                            <path d="M10,0.4 C4.698,0.4 0.4,4.698 0.4,10 C0.4,15.302 4.698,19.6 10,19.6 C15.302,19.6 19.6,15.302 19.6,10 C19.6,4.698 15.302,0.4 10,0.4 L10,0.4 Z M12.274,7.034 L10.831,7.034 C10.66,7.034 10.47,7.259 10.47,7.558 L10.47,8.6 L12.275,8.6 L12.002,10.086 L10.47,10.086 L10.47,14.547 L8.767,14.547 L8.767,10.086 L7.222,10.086 L7.222,8.6 L8.767,8.6 L8.767,7.726 C8.767,6.472 9.637,5.453 10.831,5.453 L12.274,5.453 L12.274,7.034 L12.274,7.034 Z" id="Shape"></path>
                        </g>
                    </g>
                </g>
            </g>
        </g>
    </g>
</svg>
